assets/svgs/contrast-checker-icon.svg

<svg viewBox="0 0 200.46 162.76" xmlns="http://www.w3.org/2000/svg"><path d="m133 27.92h67.42a0 0 0 0 1 0 0v67.42a67.42 67.42 0 0 1 -67.42 67.42 67.42 67.42 0 0 1 -67.37-67.42 67.42 67.42 0 0 1 67.37-67.42z" fill="#ff0040" transform="matrix(.70710678 -.70710678 .70710678 .70710678 -28.45 122)"/><path d="m67.42 27.92h67.42a0 0 0 0 1 0 0v67.42a67.42 67.42 0 0 1 -67.42 67.42 67.42 67.42 0 0 1 -67.42-67.42 67.42 67.42 0 0 1 67.42-67.42z" fill="#0be8e6" transform="matrix(.70710678 -.70710678 .70710678 .70710678 -47.67 75.59)"/><path d="m115.09 47.66-14.86-14.86-14.86 14.86a67.41 67.41 0 0 0 0 95.34 67.18 67.18 0 0 0 14.86 11.21 67.42 67.42 0 0 0 14.86-11.21 67.43 67.43 0 0 0 0-95.34z" fill="#0b0038"/></svg>

<svg xmlns="http://www.w3.org/2000/svg" viewBox="0 0 200.46 162.76"><defs><style>.cls-1ccab{isolation:isolate;}.cls-2ccab{fill:#ff0040;}.cls-3ccab{fill:#0be8e6;mix-blend-mode:multiply;}.cls-4ccab{fill:#0b0038;}</style></defs><g class="cls-1ccab"><g id="Layer_1" data-name="Layer 1"><path class="cls-2ccab" d="M133,27.92h67.42a0,0,0,0,1,0,0V95.34A67.42,67.42,0,0,1,133,162.76h0A67.42,67.42,0,0,1,65.63,95.34v0A67.42,67.42,0,0,1,133,27.92Z" transform="translate(-28.45 122) rotate(-45)"/><path class="cls-3ccab" d="M67.42,27.92h67.42a0,0,0,0,1,0,0V95.34a67.42,67.42,0,0,1-67.42,67.42h0A67.42,67.42,0,0,1,0,95.34v0A67.42,67.42,0,0,1,67.42,27.92Z" transform="translate(-47.67 75.59) rotate(-45)"/><path class="cls-4ccab" d="M115.09,47.66,100.23,32.8,85.37,47.66a67.41,67.41,0,0,0,0,95.34h0a67.18,67.18,0,0,0,14.86,11.21A67.42,67.42,0,0,0,115.09,143h0A67.43,67.43,0,0,0,115.09,47.66Z"/></g></g></svg>
